src/assets/icons/calendar-events,fancy,important-date.svg

<svg width="48" height="48" viewBox="0 0 48 48" fill="none" xmlns="http://www.w3.org/2000/svg">
<rect opacity="0.2" x="4" y="6" width="40" height="40" rx="4" fill="black"/>
<g opacity="0.4">
<path d="M10 4C10 2.89543 10.8954 2 12 2C13.1046 2 14 2.89543 14 4V8C14 9.10457 13.1046 10 12 10C10.8954 10 10 9.10457 10 8V4Z" fill="black"/>
<path d="M34 4C34 2.89543 34.8954 2 36 2C37.1046 2 38 2.89543 38 4V8C38 9.10457 37.1046 10 36 10C34.8954 10 34 9.10457 34 8V4Z" fill="black"/>
</g>
<path fill-rule="evenodd" clip-rule="evenodd" d="M10 6.00869C7.52043 6.04456 6.11466 6.22849 5.17157 7.17157C4 8.34315 4 10.2288 4 14V16H44V14C44 10.2288 44 8.34315 42.8284 7.17157C41.8853 6.22849 40.4796 6.04456 38 6.00869V8C38 9.10457 37.1046 10 36 10C34.8954 10 34 9.10457 34 8V6H14V8C14 9.10457 13.1046 10 12 10C10.8954 10 10 9.10457 10 8V6.00869Z" fill="black"/>
<path fill-rule="evenodd" clip-rule="evenodd" d="M22.2677 21C23.0375 19.6667 24.962 19.6667 25.7318 21L36.1241 39C36.8939 40.3333 35.9317 42 34.3921 42H13.6075C12.0679 42 11.1056 40.3333 11.8754 39L22.2677 21ZM22.2996 24.7C22.2996 23.7611 23.0607 23 23.9996 23C24.9385 23 25.6996 23.7611 25.6996 24.7V33.2C25.6996 34.1389 24.9385 34.9 23.9996 34.9C23.0607 34.9 22.2996 34.1389 22.2996 33.2V24.7ZM23.9996 36.6C23.0607 36.6 22.2996 37.3611 22.2996 38.3C22.2996 39.2389 23.0607 40 23.9996 40C24.9385 40 25.6996 39.2389 25.6996 38.3C25.6996 37.3611 24.9385 36.6 23.9996 36.6Z" fill="black"/>
</svg>

<svg xmlns="http://www.w3.org/2000/svg" width="48" height="48" fill="none" viewBox="0 0 48 48">
  <rect width="40" height="40" x="4" y="6" fill="#000" opacity=".2" rx="4"/>
  <g opacity=".4">
    <path fill="#000" d="M10 4a2 2 0 114 0v4a2 2 0 11-4 0V4zM34 4a2 2 0 114 0v4a2 2 0 11-4 0V4z"/>
  </g>
  <path fill="#000" fill-rule="evenodd" d="M10 6.009c-2.48.036-3.885.22-4.828 1.163C4 8.343 4 10.229 4 14v2h40v-2c0-3.771 0-5.657-1.172-6.828-.943-.944-2.348-1.127-4.828-1.163V8a2 2 0 11-4 0V6H14v2a2 2 0 11-4 0V6.009zM22.268 21c.77-1.333 2.694-1.333 3.464 0l10.392 18c.77 1.333-.192 3-1.732 3H13.607c-1.54 0-2.501-1.667-1.732-3l10.393-18zm.032 3.7a1.7 1.7 0 113.4 0v8.5a1.7 1.7 0 11-3.4 0v-8.5zM24 36.6a1.7 1.7 0 100 3.4 1.7 1.7 0 000-3.4z" clip-rule="evenodd"/>
</svg>
